X:675
T: The Aughacashel
Z: Piano Box Version by Martin Fleischmann
H: Created 2015-03-30 /  Last Modified 2015-04-08
R: reel
M: 4/4
L: 1/8
K: Gmaj
E|:DEGA BG GG|AGBG AGEG|DEGA Bded|gedB ABGE|
DEGA BG~G2|AGBG AGGG|Bded Bdge| dBAB G3z:|
f|:gB BB GABd | egdB GGG B | A2 GB AE ~E2 |cABG ABde|
g2ga bgaf|gedB ABGE|DEGA Bdge|dBAB G3z:||

